X: 20832
M: 6/8
L: 1/8
K: F
V: 1 name="5"
f |\
cAA AGF | EFG GAB | AFF BGG | Aag gfe |\
cAA AGF | EFG GAB | AFA cGe | fcA F2 H|]
c2c d2c | f2e d2c | d2c B2A | (A3 G2)A/B/ |\
c2c d2c | f2e d2c | d2c A2F | (G3 "^D.C."F2) |]
z |\
(3(c/d/e/)f2 (3(c/d/e/)f2 | c fcA F2 | (3(d/e/f/)g2 (3(d/e/f/)g2 | d gec G2 |\
a2g f2e | f2e d2c | d2c A2F | G3 "^D.C."F2 |]


